X: 30041
T: Off To Japan
R: reel
M: 4/4
K: Dmajor
D|:FABA FDDE|FAdB Afcd|B2 BA FBBA|
Bfcd AFDB|1 E2 ED FEED:|2 E2 ED FEE z||
|:FA,B,D EFG,A,|B,DFE DBAF|E2 ED FEED|FA,B,D EFG,A,|
[1 B,DFA EDBA|E3 D dBAG:|2 B,DFE DBAF|E2 EF A3 z||

